juniorguru/images/logos/cdn77com.svg

<svg xmlns="http://www.w3.org/2000/svg" width="305" height="90" viewBox="0 0 305 90">
  <g fill="none">
    <path fill="#04151F" d="M98.1610695 45.3523636C98.1610695 32.43 108.040134 23.7103636 121.107834 23.7103636 132.049777 23.7103636 137.551738 30.1085455 140.052629 35.88L129.173209 40.9609091C128.11033 37.6990909 124.859171 34.8763636 121.107834 34.8763636 115.042629 34.8763636 110.978137 39.5181818 110.978137 45.3523636 110.978137 51.186 115.042629 55.8283636 121.107834 55.8283636 124.859171 55.8283636 128.11033 53.0050909 129.173209 49.7432727L140.052629 54.762C137.61426 60.3447273 132.049777 66.9938182 121.107834 66.9938182 108.040134 66.9938182 98.1610695 58.212 98.1610695 45.3523636zM172.688173 45.2896364C172.688173 39.6436364 169.437014 35.4409091 162.684064 35.4409091L156.619403 35.4409091 156.619403 55.2005455 162.621542 55.2005455C168.936836 55.2005455 172.688173 50.5587273 172.688173 45.2896364zM143.989358 66.2416364L143.989358 24.4003636 162.621542 24.4003636C175.752308 24.4003636 185.505784 31.9276364 185.505784 45.2896364 185.505784 58.6505455 175.752308 66.2416364 162.684064 66.2416364L143.989358 66.2416364zM218.016283 66.2416364L202.635258 45.0381818 202.635258 66.2416364 190.005214 66.2416364 190.005214 24.4003636 203.010392 24.4003636 217.516105 44.2232727 217.516105 24.4003636 230.14615 24.4003636 230.14615 66.2416364 218.016283 66.2416364zM241.023396 66.2416364L254.216684 35.4409091 234.646123 35.4409091 234.646123 24.4003636 268.721854 24.4003636 268.721854 33.1827273 254.841364 66.2416364 241.023396 66.2416364zM277.125936 66.2416364L290.318681 35.4409091 270.748663 35.4409091 270.748663 24.4003636 304.824394 24.4003636 304.824394 33.1827273 290.943904 66.2416364 277.125936 66.2416364zM38.0483422 0C17.0347665 0 0 17.1952683 0 38.4058537 0 59.6168782 38.0483422 89.6136584 38.0483422 89.6136584 38.0483422 89.6136584 76.0971194 59.6168782 76.0971194 38.4058537 76.0971194 17.1952683 59.061918 0 38.0483422 0"/>
    <path fill="#FFE115" d="M38.0479073,13.7146829 C25.2381248,13.7146829 14.8548592,24.1959512 14.8548592,37.1269756 C14.8548592,50.0562439 25.2381248,60.5388295 38.0479073,60.5388295 C50.8581248,60.5388295 61.2422602,50.0562439 61.2422602,37.1269756 C61.2422602,24.1959512 50.8581248,13.7146829 38.0479073,13.7146829"/>
    <path fill="#04151F" d="M38.0470374,26.5644878 C32.2693262,26.5644878 27.5850481,31.2940976 27.5850481,37.1265366 C27.5850481,42.9589756 32.2693262,47.6881463 38.0470374,47.6881463 C43.8256185,47.6881463 48.5116364,42.9589756 48.5116364,37.1265366 C48.5116364,31.2940976 43.8256185,26.5644878 38.0470374,26.5644878"/>
  </g>
</svg>

<?xml version="1.0" encoding="UTF-8"?>
<svg width="305" height="90" viewBox="0 0 305 90" xmlns="http://www.w3.org/2000/svg">
 <path d="m98.161 45.352c0-12.922 9.8791-21.642 22.947-21.642 10.942 0 16.444 6.3982 18.945 12.17l-10.879 5.0809c-1.0629-3.2618-4.314-6.0845-8.0654-6.0845-6.0652 0-10.13 4.6418-10.13 10.476 0 5.8336 4.0645 10.476 10.13 10.476 3.7513 0 7.0025-2.8233 8.0654-6.0851l10.879 5.0187c-2.4384 5.5827-8.0029 12.232-18.945 12.232-13.068 0-22.947-8.7818-22.947-21.641zm74.527-0.062727c0-5.646-3.2512-9.8487-10.004-9.8487h-6.0647v19.76h6.0021c6.3153 0 10.067-4.6418 10.067-9.9109zm-28.699 20.952v-41.841h18.632c13.131 0 22.884 7.5273 22.884 20.889 0 13.361-9.7535 20.952-22.822 20.952h-18.695zm74.027 0-15.381-21.203v21.203h-12.63v-41.841h13.005l14.506 19.823v-19.823h12.63v41.841h-12.13zm23.007 0 13.193-30.801h-19.571v-11.041h34.076v8.7824l-13.88 33.059h-13.818zm36.103 0 13.193-30.801h-19.57v-11.041h34.076v8.7824l-13.88 33.059h-13.818zm-239.08-66.242c-21.014 0-38.048 17.195-38.048 38.406 0 21.211 38.048 51.208 38.048 51.208s38.049-29.997 38.049-51.208c0-21.211-17.035-38.406-38.049-38.406" fill="#04151F"/>
 <path d="m38.048 13.715c-12.81 0-23.193 10.481-23.193 23.412 0 12.929 10.383 23.412 23.193 23.412 12.81 0 23.194-10.483 23.194-23.412 0-12.931-10.384-23.412-23.194-23.412" fill="#FFE115"/>
 <path d="m38.047 26.564c-5.7777 0-10.462 4.7296-10.462 10.562s4.6843 10.562 10.462 10.562c5.7786 0 10.465-4.7292 10.465-10.562s-4.686-10.562-10.465-10.562" fill="#04151F"/>
</svg>
